icons/signal-filled.svg

<svg width="256" height="256" viewBox="0 0 256 256" fill="none" xmlns="http://www.w3.org/2000/svg">
<rect width="256" height="256" rx="60" fill="#3A76F0"/>
<path d="M128 48C132.151 48 136.227 48.3161 140.207 48.9255L139.063 56.3387C135.456 55.7864 131.761 55.5 128 55.5C124.239 55.5 120.545 55.7864 116.938 56.3386L115.793 48.9254C119.773 48.316 123.85 48 128 48Z" fill="#fff"/>
<path d="M146.985 50.2662L145.205 57.5537C152.515 59.3327 159.39 62.2198 165.644 66.0268L169.539 59.6158C162.638 55.4149 155.051 52.2292 146.985 50.2662Z" fill="#fff"/>
<path d="M175.279 63.4591L170.847 69.5098C176.824 73.8959 182.104 79.1762 186.49 85.1535L192.541 80.7211C187.701 74.1254 181.875 68.2989 175.279 63.4591Z" fill="#fff"/>
<path d="M196.384 86.4618L189.973 90.356C193.78 96.6101 196.667 103.486 198.446 110.795L205.734 109.016C203.771 100.95 200.585 93.3629 196.384 86.4618Z" fill="#fff"/>
<path d="M207.075 115.793L199.661 116.938C200.214 120.544 200.5 124.239 200.5 128C200.5 131.761 200.214 135.456 199.661 139.063L207.075 140.207C207.684 136.227 208 132.15 208 128C208 123.85 207.684 119.773 207.075 115.793Z" fill="#fff"/>
<path d="M189.973 165.645C193.78 159.39 196.667 152.515 198.446 145.205L205.734 146.985C203.771 155.051 200.585 162.638 196.384 169.539L189.973 165.645Z" fill="#fff"/>
<path d="M186.49 170.847L192.541 175.279C187.701 181.875 181.875 187.701 175.279 192.541L170.846 186.49C176.824 182.104 182.104 176.824 186.49 170.847Z" fill="#fff"/>
<path d="M165.644 189.973L169.538 196.384C162.637 200.585 155.05 203.771 146.984 205.734L145.204 198.446C152.514 196.667 159.39 193.78 165.644 189.973Z" fill="#fff"/>
<path d="M139.062 199.661L140.207 207.075C136.227 207.684 132.15 208 128 208C123.849 208 119.773 207.684 115.793 207.075L116.937 199.662C120.542 200.214 124.237 200.5 128 200.5C131.761 200.5 135.455 200.214 139.062 199.661Z" fill="#fff"/>
<path d="M110.794 198.448L109.015 205.734C102.956 204.259 97.1674 202.095 91.7366 199.328L84.1439 201.1L82.4397 193.796L92.7001 191.402L95.1409 192.645C100.06 195.151 105.303 197.112 110.794 198.448Z" fill="#fff"/>
<path d="M76.1097 195.273L77.8139 202.577L64.7994 205.613C56.1386 207.634 48.3657 199.861 50.3865 191.201L53.4233 178.186L60.7271 179.89L57.6904 192.905C56.9325 196.153 59.8474 199.067 63.0952 198.31L76.1097 195.273Z" fill="#fff"/>
<path d="M62.2041 173.56L54.9003 171.856L56.6719 164.263C53.9053 158.832 51.7407 153.043 50.2661 146.984L57.5519 145.205C58.8879 150.696 60.849 155.94 63.3547 160.859L64.5982 163.3L62.2041 173.56Z" fill="#fff"/>
<path d="M56.3376 139.062L48.9254 140.207C48.316 136.227 48 132.15 48 128C48 123.849 48.3161 119.773 48.9254 115.793L56.3387 116.937C55.7864 120.544 55.5 124.239 55.5 128C55.5 131.763 55.7861 135.457 56.3376 139.062Z" fill="#fff"/>
<path d="M57.5537 110.795L50.2662 109.015C52.2292 100.95 55.4149 93.3624 59.6158 86.4613L66.0268 90.3555C62.2198 96.6096 59.3327 103.485 57.5537 110.795Z" fill="#fff"/>
<path d="M69.5098 85.1531L63.4591 80.7207C68.2989 74.125 74.1254 68.2986 80.7211 63.4588L85.1535 69.5095C79.1762 73.8956 73.8959 79.1758 69.5098 85.1531Z" fill="#fff"/>
<path d="M90.356 66.0266L86.4617 59.6155C93.3628 55.4147 100.95 52.229 109.016 50.2661L110.796 57.5536C103.486 59.3326 96.6101 62.2195 90.356 66.0266Z" fill="#fff"/>
<path d="M193 128C193 163.899 163.899 193 128 193C116.613 193 105.911 190.072 96.6035 184.928C95.7074 184.433 94.6618 184.27 93.6646 184.502L64.7512 191.249L71.4977 162.335C71.7303 161.338 71.5669 160.292 71.0717 159.396C65.9278 150.089 63 139.387 63 128C63 92.1015 92.1015 63 128 63C163.899 63 193 92.1015 193 128Z" fill="#fff"/>
</svg>

<svg xmlns="http://www.w3.org/2000/svg" width="256" height="256" fill="none"><rect width="256" height="256" fill="#3A76F0" rx="60"/><path fill="#fff" d="M128 48c4.151 0 8.227.316 12.207.925l-1.144 7.414A73 73 0 0 0 128 55.5a73 73 0 0 0-11.062.839l-1.145-7.414A80.6 80.6 0 0 1 128 48m18.985 2.266-1.78 7.288a72 72 0 0 1 20.439 8.473l3.895-6.411a79.5 79.5 0 0 0-22.554-9.35m28.294 13.194-4.432 6.05a73 73 0 0 1 15.643 15.643l6.051-4.432a80.5 80.5 0 0 0-17.262-17.262m21.105 23.003-6.411 3.894a72 72 0 0 1 8.473 20.439l7.288-1.779a79.5 79.5 0 0 0-9.35-22.554m10.691 29.331-7.414 1.145A73 73 0 0 1 200.5 128c0 3.761-.286 7.456-.839 11.063l7.414 1.144c.609-3.98.925-8.057.925-12.207s-.316-8.227-.925-12.207m-17.102 49.852a72 72 0 0 0 8.473-20.44l7.288 1.78a79.5 79.5 0 0 1-9.35 22.554zm-3.483 5.202 6.051 4.432a80.5 80.5 0 0 1-17.262 17.262l-4.433-6.051a72.9 72.9 0 0 0 15.644-15.643m-20.846 19.126 3.894 6.411a79.5 79.5 0 0 1-22.554 9.35l-1.78-7.288a72 72 0 0 0 20.44-8.473m-26.582 9.688 1.145 7.414c-3.98.609-8.057.925-12.207.925s-8.227-.316-12.207-.925l1.144-7.413c3.605.552 7.3.838 11.063.838a73 73 0 0 0 11.062-.839m-28.268-1.213-1.779 7.286a79.4 79.4 0 0 1-17.278-6.406l-7.593 1.772-1.704-7.304 10.26-2.394 2.44 1.243a72 72 0 0 0 15.654 5.803m-34.684-3.175 1.704 7.304-13.015 3.036c-8.66 2.021-16.433-5.752-14.413-14.412l3.037-13.015 7.304 1.704-3.037 13.015c-.758 3.248 2.157 6.162 5.405 5.405zM62.204 173.56l-7.304-1.704 1.772-7.593a79.4 79.4 0 0 1-6.406-17.279l7.286-1.779a72 72 0 0 0 5.803 15.654l1.243 2.441zm-5.866-34.498-7.413 1.145A80.6 80.6 0 0 1 48 128c0-4.151.316-8.227.925-12.207l7.414 1.144A73 73 0 0 0 55.5 128c0 3.763.286 7.457.838 11.062m1.216-28.267-7.288-1.78a79.5 79.5 0 0 1 9.35-22.554l6.41 3.895a72 72 0 0 0-8.472 20.439M69.51 85.153l-6.05-4.432a80.5 80.5 0 0 1 17.26-17.262l4.432 6.05A73 73 0 0 0 69.51 85.154m20.846-19.127-3.894-6.412a79.5 79.5 0 0 1 22.554-9.349l1.78 7.288a72 72 0 0 0-20.44 8.473"/><path fill="#fff" d="M193 128c0 35.899-29.101 65-65 65-11.387 0-22.089-2.928-31.397-8.072a4.14 4.14 0 0 0-2.938-.426l-28.914 6.747 6.747-28.914a4.14 4.14 0 0 0-.426-2.939C65.928 150.089 63 139.387 63 128c0-35.898 29.102-65 65-65 35.899 0 65 29.102 65 65"/></svg>
